X: 28181
T: Mrs Savage's Whim
R: three-two
M: 3/2
K: Bminor
f2 B4 f2 g4|e2 c4 de f2 B2|f2 B4 f2 g4|e2 de c2 f2 d2 B2|
f2 B4 f2 (g4|g2) fg e2 d2 e2 A2|f2 d4 a2 b2 B2|c2 d2 e2 c2 d4||
f2 d4 fg a4|e2 c4 ef g4|d2 B4 de f2 F2|B2 cd edcB ^A2 F2|
f2 B4 f2 g4|e2 c4 de f2 F2|d2 B4 d2 c2 (F2|F2) B2 c2 ^A2 B4||

